X:1
T: Memories of Dan Beaton
C:Ronald Gillis
R:Reel
Q: 232
K:Bb
M:4/4
L:1/8
|:FD B2 dB cA|BG FD EC CE|DB, B,1/2B,1/2B, GF DF|GF GA Bc BG|
FD B2 dB cA|BG FD EC CE|DB, B,B GE EF|1GF GA B2 B2:|2GF GA B2 Bc|
|:dB Bg fB Bd|fg fd ec ce|dB Bg fB BA|GF GA B2 Bc|
dB Bg fB Bd|fg fd ec ce|dB B1/2B1/2B bg fd|1cF GA Bc BG:|2cF GA B2 B2||
